svg/mfixx/php.svg

<svg version="1.1" xmlns="http://www.w3.org/2000/svg" xmlns:xlink="http://www.w3.org/1999/xlink" x="0px" y="0px" width="512px" height="512px"><path d="M242.9535828,115.1543884c152.3985291-5.9736786,293.3975525,67.4332733,265.4949646,165.2185364c-40.8971558,141.0980835-367.4043884,148.4278564-467.8638,53.9142151C-61.8676796,241.72229,38.4275932,122.2837677,242.9535828,115.1543884z M462.3827515,219.2103729C343.6118774,94.9637833,21.769062,152.9354706,34.9950409,264.0630188C100.3973312,437.4631958,562.8381958,360.1676025,462.3827515,219.2103729z M152.8372345,268.4469604l6.379837-38.2794647h16.5879364c8.9318542,0,15.311676,3.8279419,15.311676,11.4838715c-1.2759552,21.6915283-11.4838715,25.5198059-22.9677734,26.7955627L152.8372345,268.4469604z M142.6291351,314.3824768l5.1040649-26.7955627h22.9677734c21.6915131,1.2757874,45.9350281-16.5879211,45.9350281-47.2112885c0-17.8637238-10.2076263-28.07164-30.6233673-29.3476105h-47.2113037l-20.415741,103.3539734L142.6291351,314.3824768z M214.9789429,287.5830383h24.2435455l11.4838715-57.4194183h19.1399536c8.9316406,0,8.9316406,3.8277893,7.6556091,10.2076111l-8.9318542,47.2112885h25.5197754l8.9318542-52.3134003c2.5515747-12.7596741-5.1040344-22.9675903-25.5197754-24.2435455h-22.9677734l5.1040649-26.7955627h-24.2435455L214.9789429,287.5830383z M295.3639832,314.3819885l20.415741-103.3539734h47.2113037c20.415741,1.2759705,30.6233826,11.4838867,30.6233826,29.3475952c0,30.6233826-24.2435303,48.4870911-45.9350281,47.2113037h-22.9677734l-5.1040649,26.7955627L295.3639832,314.3819885z M345.1273193,268.4469299c11.4838867-1.2757568,21.691803-5.1040344,22.9677734-26.7955627c0-7.6559296-6.3798218-11.4838715-15.311676-11.4838715h-16.5879517l-6.3798218,38.2794647L345.1273193,268.4469299z"/></svg>

<svg xmlns="http://www.w3.org/2000/svg" width="512" height="512"><path d="M242.954 115.154c152.398-5.973 293.397 67.434 265.495 165.219C467.55 421.47 141.044 428.8 40.585 334.287c-102.453-92.565-2.157-212.003 202.369-219.133zM462.383 219.21C343.612 94.964 21.769 152.935 34.995 264.063c65.402 173.4 527.843 96.105 427.388-44.853zm-309.546 49.237 6.38-38.28h16.588c8.932 0 15.312 3.828 15.312 11.484-1.276 21.692-11.484 25.52-22.968 26.796h-15.312zm-10.208 45.935 5.104-26.795h22.968c21.691 1.276 45.935-16.588 45.935-47.211 0-17.864-10.208-28.072-30.623-29.348H138.8l-20.415 103.354h24.243zm72.35-26.799h24.243l11.484-57.42h19.14c8.932 0 8.932 3.828 7.656 10.208l-8.932 47.212h25.52l8.932-52.314c2.551-12.76-5.104-22.967-25.52-24.243h-22.968l5.104-26.796h-24.243l-20.416 103.353zm80.385 26.799 20.416-103.354h47.211c20.416 1.276 30.623 11.484 30.623 29.348 0 30.623-24.243 48.487-45.935 47.21h-22.967l-5.104 26.796h-24.244zm49.763-45.935c11.484-1.276 21.692-5.104 22.968-26.796 0-7.656-6.38-11.484-15.312-11.484h-16.588l-6.38 38.28h15.312z"/></svg>
